!!!SOCIAL_FUNCTION:	songs of the drum religion
!!!PDT:	1932
!!!OTL: No_107_Closing_Song_of_Dance.krn
!!!REG: Wisconsin
!!!LANG: Non-Tone
!!!LING_GROUP: Algonquin
**kern
*staff1
=1-
*clefF4
*k[f#c#]
*M3/4
4r
8r
16r
16B\
8.B\L
16B\Jk
=2
8.d\L
16A\Jk
8.A\L
16A\Jk
8.A\L
16A\Jk
=3!|:
8.F#\L
16D\Jk
8D\
16r
16B\
8.B\L
16B\Jk
=4
8.B\L
16A\Jk
8.A\L
16A\Jk
8.A\L
16A\Jk
=5||
*M2/4
8.F#\L
16D\Jk
8.D\L
16D\Jk
=6
8.BB/L
16AA/Jk
8AA/
16r
16D\
=7||
*M3/4
8.D/L
16BB/Jk
8.BB/L
16AA/Jk
8AA/L
8AA/J
=8||
*M2/4
2AA/
=9
8AA/
16r
16A\
8.A\L
16A\Jk
=10
8.B\L
16A\Jk
8.A\L
16F#\Jk
=11
4E\
4D\
=12
8.BB/L
16AA/Jk
8AA/
16r
16D\
=13||
*M3/4
8.D/L
16BB/Jk
8.BB/L
16AA/Jk
8AA/L
8AA/J
=14||
*M2/4
2AA/
=15||
*M3/4
4AA/
4r
8.r
16B\
=16
8.B\L
16B\Jk
8.B\L
16A\Jk
8.A\L
16A\Jk
=17:|!
*M2/4
2AA/
==
*-
